X:8004
T:Huron Carol
T:Une Jeune Pucelle
R:Air
C:Trad.
O:Canada 1643, after France
Z:Paul Hardy's Xmas Tunebook 2019 (see www.paulhardy.net). Creative Commons cc by-nc-sa licenced.
M:4/4
L:1/8
Q:1/4=130
K:C
E2|"Am"A2 B2 c2 d2|c2 B2 A2 G2|A2 A2 "Em"B2 G2|"Am"A6 E2|A2 B2 c2 d2|c2 B2 A2 G2|A2 A2 "Em"B2 G2|"Am"A6 e2|
"Em"e2 e2 B2 c2|"G"d2 c2 B2 B2|"Am"c2 B2 A2 A2|"Em"B2 A2 A2 G2|"Am"E4 A2 A2|"Em"G2 F2 E4|"Am"A4 G2 "Em"E2|"Am"A6|]
W:'Twas in the moon of wintertime when all the birds had fled
W:That mighty Gitchi Manitou sent angel choirs instead;
W:Before their light the stars grew dim and wondering hunters heard the hymn,
W:Jesus your King is born, Jesus is born, in excelsis gloria.
W:
W:(Translation by Jesse Middleton, of Jesous Ahatonia by Saint Jean de Brebeuf, 1643)
% --------------------------------- I ---------------------------------------

